X: 13
T: Tappenstreg
B:[[Notböcker/Melodier til gamle danske Almuedanse for Violin solo]]
O:Danmark
Z:Søren Bak Vestergaard
M: 6/8
L: 1/8
K: G
D|G2 A B2 c|d2 e d2 g|f2 e d2 c|B2 A G2 D|\
G2 A B2 c|d2 e d2 g|fed ed^c|d2 d d2 (B/=c/)|\
|:d2 d ded|(.c2 .B) A2 (A/B/)|c2 c cdc|(.B2 .A) G2 d|g2 d g2 d|
gfe (.d2.c)|BcB ABA|1 G2 G G2 (B/c/):|2 G2 G G2|]

